!!!COM: Joplin, Scott
!!!COM2: Hayden, Scott
!!!CDT: 1868/11/24/-1917/04/01/
!!!OTL: Felicity Rag
!!!ONB: A Ragtime Two Step
!!!ODT: 1911///
!!!OMD: Tempo di Marcia
**kern	**kern	**dynam
*staff2	*staff1	*staff1
*clefF4	*clefG2	*clefG2
*>[I,A,A1,A,A2,B,B1,B,B2,C,C1,C,C2,D,E,E1,E,E2]	*>[I,A,A1,A,A2,B,B1,B,B2,C,C1,C,C2,D,E,E1,E,E2]	*>[I,A,A1,A,A2,B,B1,B,B2,C,C1,C,C2,D,E,E1,E,E2]
*>norep[I,A,A2,B,B2,C,C2,D,E,E2]	*>norep[I,A,A2,B,B2,C,C2,D,E,E2]	*>norep[I,A,A2,B,B2,C,C2,D,E,E2]
*k[]	*k[]	*k[]
*M2/4	*M2/4	*M2/4
*MM100	*MM100	*MM100
=1-	=1-	=1-
*>I	*>I	*>I
8.GGL	8.GL	.
16FF#Jk	16F#Jk	.
(16GGLL	(16GLL	.
16GG#J	16G#J	.
8AAJ)	8AJ)	.
=2	=2	=2
8.AAL	8.AL	.
16GG#Jk	16G#Jk	.
(16AALL	(16ALL	.
16AA#J	16A#J	.
8BBJ)	8BJ)	.
=3	=3	=3
8DL	8dL	.
(16C#L	(16c#L	.
16DJJ	16dJJ	.
16D#LL	16d#LL	.
16E	16e	.
16F	16f	.
16F#JJ)	16f#JJ)	.
=4	=4	=4
8G	8g	.
8r	8r	.
8GGG^ 8GG^	8g^ 8b^ 8dd^ 8gg^	.
8r	8r	.
=5!|:	=5!|:	=5!|:
*>A	*>A	*>A
8CCL 8C	16gLL 16cc 16ee	mf
.	16f# 16cc 16dd#	.
8GJ 8c 8e	16g 16cc 16ee	.
.	[16aJJ [16cc [16ee [16aa	.
8EEL 8E	16aLL] 16cc] 16ee] 16aa]	.
.	16gg	.
8GJ 8c 8e	16ee	.
.	16ccJJ	.
=6	=6	=6
*	*^	*
8GGGL 8GG	8ddL	8.fL 8.b	.
8GJ 8B 8f	16eeL	.	.
.	[16ccJJ	[16eJk [16g	.
8CCL 8C	16ccLL]	8e] 8g]	.
.	16cc	.	.
8GJ 8c 8e	16b	8r	.
.	16b-JJ	.	.
=7	=7	=7	=7
8FFL 8F	(16aLL	4r	.
.	16g#	.	.
8AJ 8c 8f	16a	.	.
.	16ccJJ	.	.
8AAL 8A	16eeLL	8fL	.
.	16dd	.	.
8AA-J 8A-	16cc	8fJ	.
.	16aJJ)	.	.
*	*v	*v	*
=8	=8	=8
8GGL 8G	8eL 8cc	.
8GJ 8c	16eL 16a	.
.	[16eJJ [16g	.
8CCL 8C	16eLL] 16g]	.
.	16gg	.
8GJ 8c 8e	16ee	.
.	16ccJJ	.
=9	=9	=9
*	*^	*
8FFL 8F	(16aLL	4r	.
.	16g#	.	.
8AJ 8c 8f	16a	.	.
.	16ccJJ	.	.
8AAL 8A	16eeLL	8fL	.
.	16dd	.	.
8AA-J 8A-	16cc	8fJ	.
.	16aJJ)	.	.
*	*v	*v	*
=10	=10	=10
8GGL 8G	16eLL 16g 16ee	.
.	16d# 16f# 16dd#	.
8GJ 8c	16e 16g 16ee	.
.	[16aJJ [16cc [16ee [16aa	.
8EEL 8E	16aLL] 16cc] 16ee] 16aa]	.
.	16ee	.
8EE-J 8E-	16cc	.
.	16aJJ	.
=11	=11	=11
8DDL 8D	16aLL	.
.	16a#	.
8GJ 8B 8f	16b	.
.	[16bJJ [16ff [16aa	.
8GGGL 8GG	8bL] 8ff] 8aa]	.
8GJ 8B 8f	8bJ 8ff 8gg	.
=12	=12	=12
8GGGL 8GG	8ffL 8bb 8eee	.
8GJ 8B 8f	8ffJ 8bb 8ddd	.
8CCL 8C	8eeL 8gg 8ddd	.
8GJ 8c 8e	8eeJ 8gg 8ccc	.
=13	=13	=13
8CCL 8C	16gLL 16cc 16ee	.
.	16f# 16cc 16dd#	.
8GJ 8c 8e	16g 16cc 16ee	.
.	[16aJJ [16cc [16ee [16aa	.
8EEL 8E	16aLL] 16cc] 16ee] 16aa]	.
.	16gg	.
8GJ 8c 8e	16ee	.
.	16ccJJ	.
=14	=14	=14
*	*^	*
8GGGL 8GG	8ddL	8.fL 8.b	.
8GJ 8B 8f	16eeL	.	.
.	[16ccJJ	[16eJk [16g	.
8CCL 8C	16ccLL]	8e] 8g]	.
.	16cc	.	.
8GJ 8c 8e	16b	8r	.
.	16b-JJ	.	.
=15	=15	=15	=15
8FFL 8F	(16aLL	4r	.
.	16g#	.	.
8AJ 8c 8f	16a	.	.
.	16ccJJ	.	.
8AAL 8A	16eeLL	8fL	.
.	16dd	.	.
8AA-J 8A-	16cc	8fJ	.
.	16aJJ)	.	.
*	*v	*v	*
=16	=16	=16
8GGL 8G	8eL 8cc	.
8GJ 8c	16eL 16a	.
.	[16eJJ [16g	.
8CL 8c	16eLL] 16g]	.
.	16gg	.
8GJ 8c 8e	16ee	.
.	16ccJJ	.
=17	=17	=17
*	*^	*
8FFL 8F	(16aLL	4r	.
.	16g#	.	.
8AJ 8c 8f	16a	.	.
.	16ccJJ	.	.
8FFL 8F	16eeLL	8fL	.
.	16dd	.	.
8DD#J 8D#	16cc	8f#J	.
.	16aJJ)	.	.
*	*v	*v	*
=18	=18	=18
8EEL 8E	16gLL	.
.	16cc	.
8GJ 8c 8e	16ee	.
.	[16gJJ [16cc# [16ff	.
8AAAL 8AA	16gLL] 16cc#] 16ff]	.
.	16cc#J	.
8AJ 8c# 8e	8gJ 8cc# 8ee	.
=19	=19	=19
8DDL 8D	16f#LL	.
.	16a	.
8AAJ 8A	16cc	.
.	[16fJJ [16b [16ee	.
8GGL 8G	16fLL] 16b] 16ee]	.
.	16bJ	.
8GGGJ 8GG	8fJ 8b 8dd	.
=20	=20	=20
*>A1	*>A1	*>A1
8CCL 8C	4.e 4.g 4.cc	.
8GG^J 8G^	.	.
8EE^L 8E^	.	.
8DD^J 8D^	8g 8b 8ff	.
=21:|!	=21:|!	=21:|!
*>A2	*>A2	*>A2
8CCL 8C	4.e 4.g 4.cc	.
8GG^J 8G^	.	.
8EE^L 8E^	.	.
8EE-^J 8E-^	16aLL	.
.	16f#JJ	.
=22!|:	=22!|:	=22!|:
*>B	*>B	*>B
8DDL 8D	(16gLL	f
.	16a	.
8GJ 8B 8f	16b	.
.	16ccJJ	.
8GGGL 8GG	16ddLL	.
.	16eeJ	.
8GJ 8B 8f	8ffJ)	.
=23	=23	=23
8DDL 8D	8aL 8ff	.
8GJ 8B 8f	16bL 16ff	.
.	[16aJJ [16ff	.
8DDL 8D	4a] 4ff]	.
8DD#J 8D#	.	.
=24	=24	=24
8EEL 8E	(16gLL	.
.	16a	.
8GJ 8c 8e	16b	.
.	16ccJJ	.
8GGGL 8GG	16ddLL	.
.	16dd#J	.
8GJ 8c 8e	8eeJ)	.
=25	=25	=25
8CCL 8C	8gL 8ee	.
8GJ 8c 8e	16aL 16ee	.
.	[16gJJ [16ee	.
8CCL 8C	4g] 4ee]	.
8CC#J 8C#	.	.
=26	=26	=26
8DDL 8D	8bL 8ff 8bb	.
8GJ 8B 8f	16a#L 16aa#	.
.	[16bJJ [16ff [16bb	.
8GGGL 8GG	16bLL] 16ff] 16bb]	.
.	16a#J 16aa#	.
8GJ 8B 8f	8bJ 8ff 8bb	.
=27	=27	=27
!!pagebreak:original
8BBBL 8BB	16aaLL	.
.	16ff	.
8GJ 8B 8f	16dd	.
.	16bJJ	.
8GGGL 8GG	4a	.
8GJ 8B 8f	.	.
=28	=28	=28
8CCL 8C	8aL 8ee 8aa	.
8GJ 8c 8e	16g#L 16gg#	.
.	[16aJJ [16ee [16aa	.
8GGGL 8GG	16aLL] 16ee] 16aa]	.
.	16g#J 16gg#	.
8GJ 8c 8e	8aJ 8ee 8aa	.
=29	=29	=29
8CCL 8C	16ggLL	.
.	16ee	.
8GJ 8c 8e	16cc	.
.	16aJJ	.
8EEL 8E	(16gLL	.
.	16cc	.
8GJ 8c 8e	16b	.
.	16aJJ)	.
=30	=30	=30
8DDL 8D	(16gLL	.
.	16a	.
8GJ 8B 8f	16b	.
.	16ccJJ	.
8GGGL 8GG	16ddLL	.
.	16eeJ	.
8GJ 8B 8f	8ffJ)	.
=31	=31	=31
8DDL 8D	8aL 8ff	.
8GJ 8B 8f	16bL 16ff	.
.	[16aJJ [16ff	.
8DDL 8D	4a] 4ff]	.
8DD#J 8D#	.	.
=32	=32	=32
8EEL 8E	(16gLL	.
.	16a	.
8GJ 8c 8e	16b	.
.	16ccJJ	.
8GGGL 8GG	16ddLL	.
.	16dd#J	.
8GJ 8c 8e	8eeJ)	.
=33	=33	=33
8CCL 8C	8gL 8ee	.
8GJ 8c 8e	16aL 16ee	.
.	[16gJJ [16ee	.
8EEL 8E	16gLL] 16ee]	.
.	(16cc	.
8GJ 8c 8e	16b	.
.	16b-JJ)	.
=34	=34	=34
*	*^	*
8FFL 8F	(16aLL	4r	.
.	16g#	.	.
8AJ 8c 8f	16a	.	.
.	16ccJJ	.	.
8FFL 8F	16eeLL	8fL	.
.	16dd	.	.
8DD#J 8D#	16cc	8f#J	.
.	16aJJ)	.	.
*	*v	*v	*
=35	=35	=35
8EEL 8E	16gLL	.
.	16cc	.
8GJ 8c 8e	16ee	.
.	[16gJJ [16cc# [16ff	.
8AAAL 8AA	16gLL] 16cc#] 16ff]	.
.	16cc#J	.
8AJ 8c# 8e	8gJ 8cc# 8ee	.
=36	=36	=36
8DDL 8D	16f#LL	.
.	16a	.
8AAJ 8A	16cc	.
.	[16fJJ [16b [16ee	.
8GGL 8G	16fLL] 16b] 16ee]	.
.	16bJ	.
8GGGJ 8GG	8fJ 8b 8dd	.
=37	=37	=37
*>B1	*>B1	*>B1
8CCL 8C	4.e 4.g 4.cc	.
8GG^J 8G^	.	.
8EE^L 8E^	.	.
8EE-^J 8E-^	16aLL	.
.	16f#JJ	.
=38:|!	=38:|!	=38:|!
*>B2	*>B2	*>B2
8CCL 8C	4e 4g 4cc	.
8GGJ	.	.
8CC	8cc 8ee 8gg 8ccc	.
8r	8r	.
=39!|:	=39!|:	=39!|:
*>C	*>C	*>C
*k[b-]	*k[b-]	*k[b-]
8FL	16ccLL	.
.	16a	.
8AJ 8c	16f	.
.	16gJJ	.
8CL	16aLK	.
.	8dd 8ff	.
8AJ 8c	.	.
.	16ccJk 16ee	.
=40	=40	=40
8GL	8b-L 8dd	.
8B-J 8c	16aL 16cc	.
.	[16gJJ [16b-	.
8CL	8.gL] 8.b-]	.
8B-J 8c	.	.
.	[16b-Jk	.
=41	=41	=41
8GL	16b-LL]	.
.	16g	.
8B-J 8c	16e	.
.	16fJJ	.
8CL	16gLK	.
.	8cc 8ee	.
8B-J 8c	.	.
.	16b-Jk 16dd	.
=42	=42	=42
8FL	8aL 8cc	.
8AJ 8c	16gL 16b-	.
.	[16fJJ [16a	.
8CL	8.fL] 8.a]	.
8AJ 8c	.	.
.	[16ccJk	.
=43	=43	=43
*^	*	*
8FL	4F	16ccLL]	.
.	.	16a	.
8AJ 8c	.	16f	.
.	.	16gJJ	.
8F#L	4F#	16aLK	.
.	.	8cc	.
8AJ 8c 8d#	.	.	.
.	.	16dd#Jk	.
*v	*v	*	*
=44	=44	=44
8GL	8gL 8ee	.
8cJ 8e	16f#L 16dd#	.
.	[16gJJ [16ee	.
8GGL	4g] 4ee]	.
8GJ 8c 8e	.	.
=45	=45	=45
8DL	16ffLL	.
.	16dd	.
8GJ 8B 8f	16b	.
.	[16gJJ	.
8GGL	16gLL]	.
.	16ff	.
8GJ 8B 8f	16dd	.
.	16ggJJ	.
=46	=46	=46
8c 8e	4cc	.
8GGL 8G	.	.
8CC^J 8C^	8cc 8ee 8ccc	.
8r	8r	.
=47	=47	=47
8FL	16ccLL	.
.	16a	.
8AJ 8c	16f	.
.	16gJJ	.
8CL	16aLK	.
.	8dd 8ff	.
8AJ 8c	.	.
.	16ccJk 16ee	.
=48	=48	=48
8GL	8b-L 8dd	.
8B-J 8c	16aL 16cc	.
.	[16gJJ [16b-	.
8CL	8.gL] 8.b-]	.
8B-J 8c	.	.
.	[16b-Jk	.
=49	=49	=49
8GL	16b-LL]	.
.	16g	.
8B-J 8c	16e	.
.	16fJJ	.
8CL	16gLK	.
.	8cc 8ee	.
8B-J 8c	.	.
.	16b-Jk 16dd	.
=50	=50	=50
8FL	8aL 8cc	.
8AJ 8c	16gL 16b-	.
.	[16fJJ [16a	.
8E-L	4f] 4a]	.
8FJ 8A 8c	.	.
=51	=51	=51
*^	*	*
8DL	4D	16f#LL	.
.	.	16a	.
8F#J 8c 8d	.	16cc	.
.	.	[16f#JJ [16ee-	.
8DDL	4DD	16f#LL] 16ee-]	.
.	.	16ddJ	.
8F#J 8c 8d	.	8f#J 8cc	.
*v	*v	*	*
=52	=52	=52
8GGL	16gLL 16b-	.
.	16a	.
8GJ 8B- 8d	16b-	.
.	[16gJJ [16b- [16gg	.
8BB-L	16gLL] 16b-] 16gg]	.
.	16ddJ	.
8GJ 8B- 8d	8gJ 8b-	.
=53	=53	=53
8CL	16fLK 16a 16dd	.
.	8f 8a 8cc	.
8AJ 8c	.	.
.	16fJk 16a	.
8CL	16eLL 16cc	.
.	16b-J	.
8B-J 8c	8eJ 8g	.
=54	=54	=54
*>C1	*>C1	*>C1
8F 8A 8c	8fL	.
8r	16fL	.
.	16eJJ	.
4r	(16fLL	.
.	16g	.
.	16a	.
.	16b-JJ)	.
=55:|!	=55:|!	=55:|!
*>C2	*>C2	*>C2
8F	4f	.
8C	.	.
8FFL	8fL 8a 8ff	.
8GJ	8gJ	.
=56||	=56||	=56||
*>D	*>D	*>D
*k[]	*k[]	*k[]
4.c	4.ee	.
8G	8g	.
=57	=57	=57
4.e	4.gg	.
8G	8g	.
=58	=58	=58
8GL 8B 8f	16ggLL	.
.	16ff#	.
8GJ 8B 8f	16gg	.
.	[16ffJJ	.
8GL 8B 8f	16ffLL]	.
.	16eeJ	.
8GJ 8B 8f	8ddJ	.
=59	=59	=59
8c 8e	8cc	.
8GGG^L 8GG^	8r	.
8AAA^ 8AA^	4r	.
8BBB^J 8BB^	.	.
=60!|:	=60!|:	=60!|:
*>E	*>E	*>E
8CCL 8C	16gLL 16cc 16ee	.
.	16f# 16cc 16dd#	.
8GJ 8c 8e	16g 16cc 16ee	.
.	[16aJJ [16cc [16ee [16aa	.
8EEL 8E	16aLL] 16cc] 16ee] 16aa]	.
.	16gg	.
8GJ 8c 8e	16ee	.
.	16ccJJ	.
=61	=61	=61
*	*^	*
8GGGL 8GG	8ddL	8.fL 8.b	.
8GJ 8B 8f	16eeL	.	.
.	[16ccJJ	[16eJk [16g	.
8CCL 8C	16ccLL]	8e] 8g]	.
.	16cc	.	.
8GJ 8c 8e	16b	8r	.
.	16b-JJ	.	.
*	*v	*v	*
=62	=62	=62
!!pagebreak:original
*	*^	*
8FFL 8F	(16aLL	4r	.
.	16g#	.	.
8AJ 8c 8f	16a	.	.
.	16ccJJ	.	.
8AAL 8A	16eeLL	8fL	.
.	16dd	.	.
8AA-J 8A-	16cc	8fJ	.
.	16aJJ)	.	.
*	*v	*v	*
=63	=63	=63
8GGL 8G	8eL 8cc	.
8GJ 8c	16eL 16a	.
.	[16eJJ [16g	.
8CCL 8C	16eLL] 16g]	.
.	16gg	.
8GJ 8c 8e	16ee	.
.	16ccJJ	.
=64	=64	=64
*	*^	*
8FFL 8F	(16aLL	4r	.
.	16g#	.	.
8AJ 8c 8f	16a	.	.
.	16ccJJ	.	.
8AAL 8A	16eeLL	8fL	.
.	16dd	.	.
8AA-J 8A-	16cc	8fJ	.
.	16aJJ)	.	.
*	*v	*v	*
=65	=65	=65
8GGL 8G	16eLL 16g 16ee	.
.	16d# 16f# 16dd#	.
8GJ 8c	16e 16g 16ee	.
.	[16aJJ [16cc [16ee [16aa	.
8EEL 8E	16aLL] 16cc] 16ee] 16aa]	.
.	16ee	.
8EE-J 8E-	16cc	.
.	16aJJ	.
=66	=66	=66
8DDL 8D	16aLL	.
.	16a#	.
8GJ 8B 8f	16b	.
.	[16bJJ [16ff [16aa	.
8GGGL 8GG	8bL] 8ff] 8aa]	.
8GJ 8B 8f	8bJ 8ff 8gg	.
=67	=67	=67
8GGGL 8GG	8ffL 8bb 8eee	.
8GJ 8B 8f	8ffJ 8bb 8ddd	.
8CCL 8C	8eeL 8gg 8ddd	.
8GJ 8c 8e	8eeJ 8gg 8ccc	.
=68	=68	=68
8CCL 8C	16gLL 16cc 16ee	.
.	16f# 16cc 16dd#	.
8GJ 8c 8e	16g 16cc 16ee	.
.	[16aJJ [16cc [16ee [16aa	.
8EEL 8E	16aLL] 16cc] 16ee] 16aa]	.
.	16gg	.
8GJ 8c 8e	16ee	.
.	16ccJJ	.
=69	=69	=69
*	*^	*
8GGGL 8GG	8ddL	8.fL 8.b	.
8GJ 8B 8f	16eeL	.	.
.	[16ccJJ	[16eJk [16g	.
8CCL 8C	16ccLL]	8e] 8g]	.
.	16cc	.	.
8GJ 8c 8e	16b	8r	.
.	16b-JJ	.	.
=70	=70	=70	=70
8FFL 8F	(16aLL	4r	.
.	16g#	.	.
8AJ 8c 8f	16a	.	.
.	16ccJJ	.	.
8AAL 8A	16eeLL	8fL	.
.	16dd	.	.
8AA-J 8A-	16cc	8fJ	.
.	16aJJ)	.	.
*	*v	*v	*
=71	=71	=71
8GGL 8G	8eL 8cc	.
8GJ 8c	16eL 16a	.
.	[16eJJ [16g	.
8CL 8c	16eLL] 16g]	.
.	16gg	.
8GJ 8c 8e	16ee	.
.	16ccJJ	.
=72	=72	=72
*	*^	*
8FFL 8F	(16aLL	4r	.
.	16g#	.	.
8AJ 8c 8f	16a	.	.
.	16ccJJ	.	.
8FFL 8F	16eeLL	8fL	.
.	16dd	.	.
8DD#J 8D#	16cc	8f#J	.
.	16aJJ)	.	.
*	*v	*v	*
=73	=73	=73
8EEL 8E	16gLL	.
.	16cc	.
8GJ 8c 8e	16ee	.
.	[16gJJ [16cc# [16ff	.
8AAAL 8AA	16gLL] 16cc#] 16ff]	.
.	16cc#J	.
8AJ 8c# 8e	8gJ 8cc# 8ee	.
=74	=74	=74
8DDL 8D	16f#LL	.
.	16a	.
8AAJ 8A	16cc	.
.	[16fJJ [16b [16ee	.
8GGL 8G	16fLL] 16b] 16ee]	.
.	16bJ	.
8GGGJ 8GG	8fJ 8b 8dd	.
=75	=75	=75
*>E1	*>E1	*>E1
8CCL 8C	4.e 4.g 4.cc	.
8GG^J 8G^	.	.
8EE^L 8E^	.	.
8DD^J 8D^	8g 8b 8ff	.
=76:|!	=76:|!	=76:|!
*>E2	*>E2	*>E2
8CCL 8C	4e 4g 4cc	.
8GGJ	.	.
8CC	8cc^ 8ee^ 8gg^ 8ccc^	.
8r	8r	.
==	==	==
*-	*-	*-
!!!ENC: Nate Sloan
!!!END: 2012/05/07/
!!!OMB: Converted from MusicXML by Craig Sapp 2012/06/10/
